64x64/apps/darktable.svg

<svg xmlns="http://www.w3.org/2000/svg" width="64" height="64" version="1">
 <path style="fill:#343434" d="M 55.999332,32.000464 A 23.999681,23.999681 0 0 1 31.999651,56.000145 23.999681,23.999681 0 0 1 7.9999701,32.000464 23.999681,23.999681 0 0 1 31.999651,8.0007835 23.999681,23.999681 0 0 1 55.999332,32.000464 Z"/>
 <path style="opacity:0.2" d="m 33.875626,7.0235834 c -0.255997,-0.0108 -0.507993,0.0154 -0.76199,0.0118 L 25.127742,28.151102 13.730294,15.057876 c -0.305396,0.316396 -0.630992,0.607592 -0.921788,0.941388 L 25.127742,30.151076 33.875626,7.0233834 Z m 20.779724,12.7732296 -22.831697,3.78915 -0.75799,2.123972 24.687672,-4.095946 C 55.421339,20.985998 55.035345,20.392805 54.65535,19.796813 Z M 39.385553,28.2899 37.937572,28.557897 53.87736,47.589644 c 2.863962,-4.431941 4.255943,-9.635872 4.063946,-14.881802 -0.191998,4.555939 -1.565979,9.01588 -4.063946,12.881828 L 39.385553,28.2899 Z M 6.057996,31.29186 c -0.1345982,3.205958 0.297396,6.457915 1.4139812,9.593873 L 26.06113,37.441779 24.613149,35.709802 7.4719772,38.885759 C 6.5873889,36.401793 6.1515947,33.841827 6.057996,31.29186 Z m 26.875643,8.997881 -0.75799,0.123998 -5.511927,15.471794 C 19.365219,54.531551 13.163101,50.183609 9.3437523,44.203689 L 8.2459669,44.385686 C 11.902718,51.309594 18.638229,56.397527 26.663722,57.885507 l 6.269917,-17.595766 z m 17.335769,8.651885 c -5.103932,5.285929 -12.165838,8.123892 -19.383742,8.021893 l -0.76199,2.011973 c 7.911895,0.339996 15.74579,-2.867962 21.06772,-8.97588 l -0.921988,-1.057986 z"/>
 <path style="fill:#e9721a" d="M 37.33558,7.1139953 31.065663,24.710561 55.753335,20.614616 C 52.097384,13.690908 45.359473,8.6029755 37.33558,7.1139953 Z"/>
 <path style="fill:#e3bf20" d="M 56.527325,24.112569 37.936972,27.557523 53.87816,46.59007 c 4.253343,-6.584312 5.354129,-14.880202 2.649165,-22.477701 z"/>
 <path style="fill:#28a226" d="M 51.191396,48.998238 38.87016,34.847226 30.123076,57.974919 c 7.910095,0.339615 15.74739,-2.868562 21.06772,-8.976681 z"/>
 <path style="fill:#2977d1" d="M 26.663722,56.886133 32.933639,39.290367 8.2459669,43.386313 c 3.6567511,6.923908 10.3932621,12.01164 18.4189551,13.50082 z"/>
 <path style="fill:#c029c0" d="M 7.4725772,39.888359 26.06373,36.442405 10.121942,17.410858 C 5.8683985,23.994571 4.7678131,32.29046 7.4725772,39.888559 Z"/>
 <path style="fill:#c01728" d="M 12.807506,15.00189 25.129742,29.152502 33.875626,6.0248098 C 25.965731,5.6856143 18.128435,8.8937717 12.807906,15.00189 Z"/>
 <path style="fill:#f4f4f7;opacity:0.2" d="M 37.335938 7.1132812 L 31.066406 24.710938 L 31.445312 24.648438 L 37.335938 8.1152344 C 45.000472 9.5375291 51.48386 14.247997 55.236328 20.701172 L 55.753906 20.615234 C 52.097955 13.691526 45.359831 8.6022614 37.335938 7.1132812 z"/>
 <path style="fill:#f4f4f7;opacity:0.2" d="M 56.527344 24.113281 L 37.9375 27.556641 L 38.664062 28.423828 L 56.527344 25.113281 C 57.468927 27.757931 57.939479 30.486971 57.986328 33.199219 C 58.053302 30.159097 57.584991 27.083921 56.527344 24.113281 z"/>
 <path style="fill:#f4f4f7;opacity:0.2" d="M 38.871094 34.847656 L 30.123047 57.974609 C 30.248758 57.980007 30.374335 57.976861 30.5 57.980469 L 38.871094 35.847656 L 50.742188 49.482422 C 50.89103 49.320114 51.04626 49.164685 51.191406 48.998047 L 38.871094 34.847656 z"/>
 <path style="fill:#f4f4f7;opacity:0.2" d="M 32.933594 39.291016 L 8.2460938 43.386719 C 8.4099726 43.697017 8.5875833 43.998018 8.7636719 44.300781 L 32.554688 40.353516 L 32.933594 39.291016 z"/>
 <path style="fill:#f4f4f7;opacity:0.2" d="M 10.121094 17.410156 C 7.3481863 21.702114 5.9259449 26.723168 6.0136719 31.802734 C 6.1177325 27.067072 7.5304303 22.421986 10.121094 18.412109 L 25.339844 36.578125 L 26.064453 36.443359 L 10.121094 17.410156 z"/>
 <path style="fill:#f4f4f7;opacity:0.2" d="M 32.394531 6.0019531 C 24.996463 6.0972919 17.79659 9.2755922 12.808594 15.001953 L 12.806641 15.001953 L 13.255859 15.517578 C 18.47624 9.8248012 25.93238 6.8028505 33.498047 7.0195312 L 33.875 6.0253906 C 33.380632 6.0041909 32.887736 5.9955972 32.394531 6.0019531 z"/>
</svg>

<svg xmlns="http://www.w3.org/2000/svg" width="64" height="64" version="1"><path style="fill:#343434" d="M56 32a24 24 0 0 1-24 24A24 24 0 0 1 8 32 24 24 0 0 1 32 8a24 24 0 0 1 24 24z"/><path style="opacity:.2" d="M33.876 7.024c-.256-.011-.508.015-.762.011l-7.986 21.116L13.73 15.058c-.305.316-.63.607-.921.941l12.319 14.152 8.748-23.128zm20.78 12.773-22.832 3.789-.758 2.124 24.687-4.096c-.332-.628-.718-1.221-1.098-1.817zm-15.27 8.493-1.448.268 15.94 19.032c2.863-4.432 4.255-9.636 4.063-14.882-.192 4.556-1.566 9.016-4.064 12.882l-14.491-17.3zM6.058 31.292c-.135 3.206.297 6.458 1.414 9.594l18.59-3.444-1.449-1.732-17.141 3.176c-.885-2.484-1.32-5.044-1.414-7.594zm26.876 8.998-.758.124-5.512 15.472a26.249 26.249 0 0 1-17.32-11.682l-1.098.182c3.657 6.924 10.392 12.012 18.418 13.5l6.27-17.596zm17.335 8.652c-5.104 5.286-12.165 8.124-19.383 8.022l-.762 2.011c7.912.34 15.745-2.867 21.067-8.975l-.922-1.058z"/><path style="fill:#e9721a" d="m37.336 7.114-6.27 17.597 24.687-4.096C52.097 13.69 45.36 8.603 37.336 7.114z"/><path style="fill:#e3bf20" d="m56.527 24.113-18.59 3.445L53.878 46.59c4.254-6.584 5.354-14.88 2.65-22.478z"/><path style="fill:#28a226" d="m51.191 48.998-12.32-14.15-8.748 23.127c7.91.34 15.747-2.869 21.068-8.977z"/><path style="fill:#2977d1" d="m26.664 56.886 6.27-17.596-24.688 4.096c3.657 6.924 10.393 12.012 18.419 13.501z"/><path style="fill:#c029c0" d="m7.473 39.888 18.59-3.446-15.941-19.031c-4.254 6.584-5.354 14.88-2.65 22.478z"/><path style="fill:#c01728" d="m12.808 15.002 12.322 14.15 8.746-23.127c-7.91-.34-15.748 2.869-21.068 8.977z"/><path style="fill:#f4f4f7;opacity:.2" d="m37.336 7.113-6.27 17.598.38-.063 5.89-16.533a26.265 26.265 0 0 1 17.9 12.586l.518-.086C52.098 13.692 45.36 8.602 37.336 7.113zM56.527 24.113l-18.59 3.444.727.867 17.863-3.31a25.38 25.38 0 0 1 1.46 8.085 25.38 25.38 0 0 0-1.46-9.086zM38.871 34.848l-8.748 23.127c.126.005.251.002.377.005l8.371-22.132 11.871 13.634c.149-.162.304-.317.45-.484l-12.32-14.15zM32.934 39.291 8.246 43.387c.164.31.342.611.518.914l23.79-3.947.38-1.063zM10.121 17.41a25.724 25.724 0 0 0-4.107 14.393 25.733 25.733 0 0 1 4.107-13.39L25.34 36.577l.724-.135L10.121 17.41zM32.395 6.002c-7.399.095-14.598 3.274-19.586 9h-.002l.449.516c5.22-5.693 12.676-8.715 20.242-8.498l.377-.995c-.494-.02-.987-.03-1.48-.023z"/></svg>
